X:265
T: Taiyang chulai hongdundun
N: C1762
O: China, Shandong Rizhao
S: III, 336]
R: Xiaodiao, Qiaolang diao]
M: 2/4
L: 1/16
K: D
B4B4 | B2d2B4 | e3fe2d2 | B2d2A4 | e2A2B2cB | A6B2 | A2F2z4
F2A2B2A2 | B2d2B2A2 | F2E2E2D2 | E2F2A2B2 | F3AF2E2 | D6E2 | D4z4
d2B2B4 | d2B2B2d2 | e2f2d4 | B4A4 | e2c2B2cB | A6B2 | A2F2z4
F2A2B2A2 | B2d2B2A2 | F2E2E2D2 | E2F2A2B2 | F3AF2E2 | D6E2 | D4z4

